X:1
T:Title
%%score { 1 | 2 }
L:1/8
M:4/4
K:G
V:1 treble nm="Grand Piano"
V:2 bass 
V:1
 z4 z2[Q:1/4=100] [DB]>[Ec] | B2 A2 A>^G A>B | [CA]2 [B,G]2 [B,D]2 [B,G][CA] | GFFE F2 c2 | %4
 c2 B2 B2 B>c | BAA^G A2 B2 | A2 G2 [Gd]2 [Ge]2 | [Gd]>[Gd] [Gd]>[EGc] [DGB]2 [B,DG]2 | %8
[M:3/4] [CA]4 [B,G]2 |[M:1/4] [Gd]>[Gd] |[M:4/4] [Fd]2 [Fc]2 [CE]2 [Ec]2 | %11
 [DB]>[^C_B] [D=B]4 [Gd]>[Gd] | [Fd]2 [Fc]2 [CE]2 [Ec]2 |[M:3/4] [DB]6 |[M:1/4] DD | %15
[M:4/4] G2 G2 G2 A2 |[M:9/8] [GB]>[Gc][DGd]- [DGd]3 [Ge]3 | %17
[M:4/4] [DGd] [DGd]2 [EGc] [DGB]2 [CFA]2 |[M:3/4] [B,G]6 |] %19
V:2
 z4 z2 [G,,G,]>[G,,G,] | [D,G,D]2 [D,F,C]2 [D,F,C]>[D,F,B,] [D,F,C]>[D,F,D] | %2
 [G,,G,]2 [G,,G,]2 [G,,G,]2 [G,,G,][G,,G,] | [D,A,C][D,A,C][D,A,C][D,^G,C] [D,A,C]2 [D,F,E]2 | %4
 [G,E]2 [G,D]2 [G,D]2 [G,D]>[G,E] | [D,G,D][D,F,C][D,F,C][D,F,C] [D,F,C]2 [D,F,D]2 | %6
 [G,C]2 [G,B,]2 [B,,G,]2 [C,C]2 | [D,B,]>[D,B,] [D,B,]>D, D,2 D,2 |[M:3/4] [D,F,]4 [G,,G,]2 | %9
[M:1/4] [G,B,]>[G,B,] |[M:4/4] [D,A,]2 [D,A,]2 [D,F,]2 [D,F,]2 | %11
 [G,,G,]>[G,,G,] [G,,G,]4 [G,B,]>[G,B,] | [D,A,]2 [D,A,]2 [D,F,]2 [D,F,]2 |[M:3/4] [G,,G,]6 | %14
[M:1/4] [G,B,][G,B,] |[M:4/4] [G,B,]2 [=F,G,B,]2 [E,G,C]2 [^D,G,C]2 | %16
[M:9/8] [D,G,]>[D,G,]B,,- B,,3 [C,C]3 |[M:4/4] B,, B,,2 C, D,2 D,2 |[M:3/4] G,6 |] %19

